X:1
T:Title
%%score { ( 1 3 ) | ( 2 4 ) }
L:1/8
M:4/4
K:G
V:1 treble nm="Grand Piano"
V:3 treble 
V:2 bass 
V:4 bass 
V:1
 z4 z2[Q:1/4=100] [B,D]2 | [B,D]2 [B,G]>[CA] [DB]2 [DA][DG] | [DF][FA][EG][CE] [CE] [B,D]2 [B,D] | %3
 [B,D]2 G>B d2 ed | G2 [^CA][CB] [DA]3 [=CD] | [B,D]2 [B,G]>[CA] [DB]2 [CA][B,G] | %6
 [DF][CE][CE][Ec] [Ec] [DB]2 B | B2 dd dcBA | G2 B>A [B,G]2 z2 | [FA]2 [DF]>[FA] [Fc]3 [Fc] | %10
 [Ec]B G>B d3 d | e2 cA d2 BG | E2 [^CA]>[CG] [DF]3 [=CD] | [B,D]2 [B,G]>[CA] [DB]2 [CA][B,G] | %14
 [DF][CE][CE][Ec] [DB]2 B2 | B2 dd dcBA |[M:8/4] G2 B>A .[B,G]4 z8 |] %17
V:2
 z4 z2 [G,,G,]2 | [G,,G,]2 [G,,D,]>[G,,D,] [G,,G,]2 [G,C][G,B,] | %2
 [C,C]2 [C,C][C,G,] [G,,G,] [G,,G,]2 [G,,G,] | %3
 [G,,G,]2[K:treble] [G,B,D]>[G,DG] [G,B,G]2 [G,CG][G,B,G] | %4
 [A,^CE]2 [A,,A,][A,,G,] [D,F,]3 [D,F,] | [G,,G,]2 [G,,D,]>[G,,D,] [G,,G,]2 [G,,G,][G,,G,] | %6
 [C,G,]2 [C,G,][C,G,] [G,,G,] [G,,G,]2[K:treble] [G,D] | %7
 [G,D]2 [G,B,=F][G,B,F][K:bass] [C,C]2 [C,G,D][C,E,C] | [D,B,]2 [D,D]>[D,C] [G,,D,]2 z2 | %9
 [D,D]2 [D,A,]>[D,A,] [D,A,]3 [D,A,] | z[K:treble] D [G,B,D]>[G,DG] [G,B,G]3 [G,B,G] | %11
 [CG]2 [CEG][CEG] [B,DG]2 [G,DG][K:bass][G,B,D] | [A,^C]2 [A,,E,]>[A,,A,] [D,A,]3 [D,F,] | %13
 [G,,G,]2 [G,,D,]>[G,,D,] [G,,G,]2 [G,,G,][G,,G,] | %14
 [C,G,]2 [C,G,][C,G,] [G,,G,]2[K:treble] [G,D]2 | %15
 [G,D]2 [G,B,=F][G,B,F][K:bass] [C,C]2 [C,G,D][C,E,C] |[M:8/4] [D,B,]2 [D,D]>[D,C] .[G,,D,]4 z8 |] %17
V:3
 x8 | x8 | x8 | x8 | x8 | x8 | x8 | z4 E2 z2 | x8 | x8 | x8 | x8 | x8 | x8 | x8 | z4 E2 z2 | %16
[M:8/4] x16 |] %17
V:4
 x8 | x8 | x8 | x2[K:treble] x6 | x8 | x8 | x7[K:treble] x | x4[K:bass] x4 | x8 | x8 | %10
 G,2[K:treble] z2 z4 | x7[K:bass] x | x8 | x8 | x6[K:treble] x2 | x4[K:bass] x4 |[M:8/4] x16 |] %17

